!!!OTL@@DE: Das Lied vom Feldmarschall
!!!ONB: Volksweise
!!!ODT: 1809
!!!OMD: Marchm&auml;ssig
!!!LYR: Arndt, Ernst Moritz
!!!LDT: 1813
!!!OCL: Erk, Ludwig
!!!GCO: Deutscher Liederschatz, Band 1
**kern	**kern	**kern
*staff3	*staff2	*staff1
*Ipiano	*Ipiano	*Ivox
*clefF4	*clefG2	*clefG2
*k[f#c#g#]	*k[f#c#g#]	*k[f#c#g#]
*A:	*A:	*A:
*met(C)	*met(C)	*met(C)
*M4/4	*M4/4	*M4/4
*MM110	*MM110	*MM110
8E\	8e/	8e/
=1	=1	=1
8A\L	8c#/ 8e/ 8a/L	8a/
8E\	8c#/ 8e/ 8a/	8a/
8C#\	8c#/ 8e/ 8a/	8a/
8E\J	8c#/ 8e/ 8a/J	8a/
(8AA\L	8c#/ (8a/L	(8a\L
8C#\)	8ee/)	8ee\J)
8E\	8e/ 8a/ 8cc#/	8cc#\
8A\J	8c#/ 8e/ 8a/J	8a/
=2	=2	=2
4D\	(8d^/ 8f#^/ 8a^/L	(8a^/L
.	8A/) 8d/ 8f#/	8f#/J)
8D\L	8A/ 8d/ 8f#/	8f#/
8D\J	8A/ 8d/ 8f#/J	8f#/
4D\	4.A/ 4.d/ 4.f#/	4f#/
4DD/ 4D/	.	8r
.	8f#/ 8dd/	8dd\
=3	=3	=3
8BBB/ 8BB/L	8f#/ 8dd/L	8dd\
8CC#/ 8C#/	8e/ 8f#/ 8cc#/	8cc#\
8DD/ 8D/	8d/ 8f#/ 8b/	8b\
8DD#/ 8D#/J	8c#/ 8f#/ 8a/J	8a/
4EE/ 4E/	8B/ 8e/ (8g#/L	(8g#/L
.	8g#/ 8b/)	8b/J)
8EE/ 8E/L	8g#/ 8b/ 8ee/	8ee\
8EE/ 8E/J	8d/ 8e/ 8g#/J	8g#/
=4	=4	=4
4AA/	8d/ 8e/ 8g#/ (8b/L	(8b/L
.	8c#/ 8e/ 8a/)	8a/J)
8AA/L	8c#/ 8e/ 8a/	8a/
8AA/J	8c#/ 8e/ 8a/J	8a/
4AA/	4c#/ 4e/ 4a/	4a/
8r	8r	8r
8A\	8e/ 8a/ 8cc#/	8cc#\
=5	=5	=5
*	*^	*
4E\	8cc#/ (8ee/L	4e\	(8ee\L
.	8b/ 8dd/)	.	8dd\J)
*	*v	*v	*
8E\L	8e/ 8g#/ 8b/	8b\
8E\J	8e/ 8g#/ 8b/J	8b\
4E\	4e/ 4g#/ 4b/	4b\
8E\L	8e/ 8f#/ 8a/L	8a/
8E\J	8e/ 8g#/ 8b/J	8b\
=6	=6	=6
4AA/	4e/ 4a/ 4cc#/	4cc#\
8A\L	8c#/ 8e/ 8a/L	8a/
8A\J	8c#/ 8e/ 8a/J	8a/
4A\	4.c#/ 4.e/ 4.a/	4.a/
4AA/	.	.
.	8e/ 8a/ 8cc#/	8cc#\
=7	=7	=7
*	*^	*
4E\	8cc#/ (8ee/L	4e\	8ee\L
.	8b/ 8dd/)	.	8dd\J
*	*v	*v	*
8E\L	8e/ 8a/ 8cc#/	8cc#\
8E\J	8e/ 8g#/ 8b/J	8b\
*	*^	*
4AA/	8b/ 8dd/L	4e\	8dd\L
.	8a/ 8cc#/	.	8cc#\J
*	*v	*v	*
8C#/L	8e/ 8b/	8b\
8C#/J	8e/ 8a/J	8a/
=8	=8	=8
4E\	8.e^/ 8.g#^/ 8.b^/L	4ee\
.	16e/ 16g#/ 16b/k	.
8E\L	8g#/ 8b/ 8ee/	8ee\
8E\J	8g#/ 8b/ 8ee/J	8ee\
*^	*	*
(8e/L	4.E\	8g#\ 8b\ (8ee\L	8ee\L
8d/	.	8dd\	8dd\
8c#/J)	.	8cc#\)	8cc#\J
8B/	8E\	8e\ 8g#\ 8b\J	8b\
*v	*v	*	*
=9	=9	=9
8AA\ (8A\L	4c#/ 4e/ 4a/	4a/
8E\)	.	.
8C#\	8c#/ 8e/ 8a/L	8a/
8E\J	8c#/ 8e/ 8a/J	8a/
(8AA\L	8c#/ (8a/L	(8a\L
8C#\)	8ee/)	8ee\J)
8E\	8e/ 8a/ 8cc#/	8cc#\
8A\J	8c#/ 8e/ 8a/J	8a/
=10	=10	=10
4D\ 4A\	(8f#/ 8a/L	(8a^/L
.	8d/) 8f#/	8f#/J)
8D\ 8A\L	8d/ 8f#/	8f#/
8D\ 8A\J	8d/ 8f#/J	8f#/
4D\ 4A\	4.d/ 4.f#/	4.f#/
4DD/ 4D/	.	.
.	8f#/ 8dd/	8dd\
=11	=11	=11
(8BBB/ 8BB/L	(8f#/ 8dd/L	(8dd\L
8CC#/) 8C#/	8e/) 8f#/ 8cc#/	8cc#\J)
8DD/ 8D/	8d/ 8f#/ 8b/	8b\
8DD#/ 8D#/J	8f#/ 8a/J	8a/
4EE/ 4E/	8e/ (8g#/L	(8g#/L
.	8g#/ 8b/)	8b/J)
8EE/ 8E/L	8g#/ 8b/ 8ee/	8ee\
8EE/ 8E/J	8d/ 8e/ 8g#/J	8g#/
=12	=12	=12
4AA/	(8d/ 8e/ 8g#/ 8b/L	(8b/L
.	8c#/) 8e/ 8a/	8a/J)
8AA/ 8E/L	8c#/ 8e/ 8a/	8a/
8AA/ 8E/J	8c#/ 8e/ 8a/J	8a/
4AA;/ 4E;/	4c#;/ 4e;/ 4a;/	4a;/
8r	8r	8r
==	==	==
*-	*-	*-
!!!ENC: Craig Stuart Sapp
!!!END: 2004/06/27/
!!!EFL: 163/651
